**kern	**silbe	**kern	**silbe
*ICvox	*	*ICvox	*
*e-:	*	*e-:	*
*M4/4	*	*M4/4	*
*clefF4	*	*clefG2	*
r;	.	r;	.
=1	=1	=1	=1
1r	.	1r	.
=2	=2	=2	=2
8E-	War	8e-	War
8r	.	8r	.
4r	.	4r	.
8E-	Huh!	8e-	Huh!
8r	.	8r	.
4r	.	4r	.
=3	=3	=3	=3
16e-	Yeah	2r	.
16d-	_	.	.
8B-	_	.	.
4r	.	.	.
2r	.	8d-	What
.	.	4e-	is
.	.	8d-	it
=4	=4	=4	=4
2r	.	4g-	good
.	.	8e-	for?
.	.	8r	.
8d-	ab-	2r	.
8e-	-so-	.	.
8e-	-lu-	.	.
8d-	-tely	.	.
=5	=5	=5	=5
4r	.	16e-	No-
.	.	16G-	-thin'
.	.	8r	.
8D-	Ah	4r	.
4E-	ha	.	.
.	.	2r	.
8G-	_	.	.
16E-	_	.	.
16D-	_	.	.
8BB-	_	.	.
=6	=6	=6	=6
2r	.	8e-	War
.	.	8r	.
.	.	4r	.
8E-	Huh!	8e-	Huh!
8r	.	8r	.
8r	.	4r	.
16e-	Yeah	.	.
16d-	_	.	.
=7	=7	=7	=7
8B-	_	2r	.
8r	.	.	.
4r	.	.	.
2r	.	8d-	What
.	.	4e-	is
.	.	8d-	it
=8	=8	=8	=8
2r	.	4g-	good
.	.	8e-	for?
.	.	8r	.
8d-	ab-	2r	.
8e-	-so-	.	.
8e-	-lu-	.	.
8d-	-tely	.	.
=9	=9	=9	=9
4r	.	16e-	No-
.	.	16G-	-thin'
.	.	8r	.
16g-	Say	4r	.
16g-	it	.	.
16g-	a-	.	.
[16e-	-gain	.	.
8e-]	_	2r	.
16B-	ya'll	.	.
16A-	_	.	.
8G-	_	.	.
8r	.	.	.
=10	=10	=10	=10
4.r	.	8e-	War
.	.	8r	.
.	.	4r	.
8E-	Huh!	.	.
8r	.	8e-	Huh!
8G-	Good	8r	.
8E-	god!	4r	.
8r	.	.	.
=11	=11	=11	=11
1r	.	2r	.
.	.	8d-	What
.	.	4e-	is
.	.	8d-	it
=12	=12	=12	=12
2r	.	4g-	good
.	.	8e-	for?
.	.	8r	.
8d-	ab-	2r	.
8e-	-so-	.	.
8e-	-lu-	.	.
8d-	-tely	.	.
=13	=13	=13	=13
8r	.	16e-	No-
.	.	16G-	-thin'
16G-	Lis-	8r	.
16G-	-ten	.	.
16E-	to	4r	.
16GG-	me	.	.
8r	.	.	.
*clefG2	*	*	*
2ee-	Ah	2r	.
=14	=14	=14	=14
4ee-	war!	4e-	War
4r	.	4r	.
4e-	I	2r	.
8e-	de-	.	.
8B-	-spise	.	.
=15	=15	=15	=15
4G-	_	1r	.
4r	.	.	.
4r	.	.	.
8e-	'cause	.	.
8e-	it	.	.
=16	=16	=16	=16
4b-	needs	1r	.
8a-	de-	.	.
4b-	-struc-	.	.
8dd-	-tion	.	.
8r	.	.	.
8d-	of	.	.
=17	=17	=17	=17
16e-	in-	1r	.
16e-	-noc-	.	.
8e-	-cent	.	.
8d-	lives	.	.
8G-	_	.	.
2r	.	.	.
=18	=18	=18	=18
8b-	War	1r	.
8a-	means	.	.
8g-	_	.	.
8b-	tears	.	.
8b-	_	.	.
8r	.	.	.
8r	.	.	.
16d-	to	.	.
[16e-	thous-	.	.
=19	=19	=19	=19
16e-]	_	1r	.
16e-	-ands	.	.
8d-	of	.	.
8e-	mo-	.	.
16d-	-thers	.	.
[16g-	eyes	.	.
16g-]	_	.	.
8g-	_	.	.
16r	.	.	.
16r	.	.	.
16d-	when	.	.
8e-	their	.	.
=20	=20	=20	=20
8.b-	sons	1r	.
8a-	go	.	.
16e-	to	.	.
[8g-	fight	.	.
8g-]	_	.	.
8r	.	.	.
8r	.	.	.
8d-	and	.	.
=21	=21	=21	=21
8e-	lose	1r	.
4e-	their	.	.
8d-	lives	.	.
8r	.	.	.
8e-	I	.	.
4g-	said	.	.
=22	=22	=22	=22
4b-	war!	8e-	War
.	.	8r	.
4r	.	4r	.
*clefF4	*	*	*
4E-	Huh!	8e-	Huh!
.	.	8r	.
8r	.	4r	.
8G-	Good	.	.
=23	=23	=23	=23
4E-	god	2r	.
4GG-	ya'll!	.	.
2r	.	8d-	What
.	.	4e-	is
.	.	8d-	it
=24	=24	=24	=24
2r	.	4g-	good
.	.	8e-	for?
.	.	8r	.
8d-	ab-	2r	.
8e-	-so-	.	.
8e-	-lu-	.	.
8d-	-tely	.	.
=25	=25	=25	=25
8r	.	16e-	No-
.	.	16G-	-thin'
8G-	Get	8r	.
16E-	say	4r	.
16E-	it	.	.
16E-	a-	.	.
8.GG-	_	.	.
.	.	2r	.
8r	.	.	.
4r	.	.	.
=26	=26	=26	=26
2r	.	8e-	War
.	.	8r	.
.	.	4r	.
8d-	Woh	8e-	Huh!
8e-	_	8r	.
8e-	woh	4r	.
8g-	_	.	.
=27	=27	=27	=27
8g-	woh	2r	.
8e-	_	.	.
16e-	Lord	.	.
16d-	_	.	.
8B-	_	.	.
2r	.	8d-	What
.	.	4e-	is
.	.	8d-	it
=28	=28	=28	=28
2r	.	4g-	good
.	.	8e-	for?
.	.	8r	.
8d-	ab-	2r	.
8e-	-so-	.	.
8e-	-lu-	.	.
8d-	-tely	.	.
=29	=29	=29	=29
8r	.	16e-	No-
.	.	16B-	-thin'
16G-	Lis-	8r	.
16G-	-ten	.	.
16E-	to	4r	.
16GG-	me	.	.
8r	.	.	.
2r	.	2r	.
=30	=30	=30	=30
*clefG2	*	*	*
4r	.	8e- g-	War
.	.	8r	.
16r	.	4r	.
16g-	It	.	.
8a-	ain't	.	.
8b-	no-	2r	.
8a-	-thin'	.	.
16r	.	.	.
16g-	but	.	.
8a-	a	.	.
=31	=31	=31	=31
8b-	heart-	1r	.
8b-	-break	.	.
4r	.	.	.
2r	.	.	.
=32	=32	=32	=32
4r	.	8e- g-	War
.	.	8r	.
4b-	Friend	4r	.
8b-	on-	2r	.
8g-	-ly	.	.
8r	.	.	.
16g-	to	.	.
16a-	the	.	.
=33	=33	=33	=33
16b-	un-	1r	.
8g-	-der-	.	.
16g-	-ta-	.	.
8e-	-ker	.	.
8r	.	.	.
*clefG2	*	*	*
2ee-	Ah	.	.
=34	=34	=34	=34
4ee-	war!	1r	.
8r	.	.	.
16b-	It's	.	.
16a-	an	.	.
16g-	en-	.	.
16a-	-e-	.	.
8b-	-my	.	.
8r	.	.	.
8d-	to	.	.
=35	=35	=35	=35
8e-	all	1r	.
4e-	man-	.	.
8d-	-kind	.	.
2r	.	.	.
=36	=36	=36	=36
8r	.	1r	.
8b-	The	.	.
16dd-	point	.	.
8b-	of	.	.
16a-	war	.	.
16g-	_	.	.
8.e-	_	.	.
8r	.	.	.
[8b-	blows	.	.
=37	=37	=37	=37
8b-]	_	1r	.
8d-	_	.	.
8e-	my	.	.
8d-	mind	.	.
2r	.	.	.
=38	=38	=38	=38
16b-	War	1r	.
8a-	has	.	.
8g-	caused	.	.
8e-	un-	.	.
8b-	-rest	.	.
16b-	_	.	.
8r	.	.	.
16r	.	.	.
16d-	wi-	.	.
16e-	-thin	.	.
16d-	the	.	.
=39	=39	=39	=39
8e-	young-	1r	.
16d-	-er	.	.
16e-	gen-	.	.
16d-	-er-	.	.
8.g-	-a-	.	.
8e-	-tion	.	.
8r	.	.	.
8r	.	.	.
8d-	In-	.	.
=40	=40	=40	=40
8g-	-duc-	1r	.
8e-	-tion	.	.
12r	.	.	.
12e-	the	.	.
12d-	de-	.	.
8g-	-struc-	.	.
8e-	-tion	.	.
16r	.	.	.
16d-	Who	.	.
8B-	wants	.	.
=41	=41	=41	=41
16G-	to	1r	.
8.E-	die?	.	.
8r	.	.	.
[8ee-	Ah	.	.
2ee-]	_	.	.
=42	=42	=42	=42
4ee-	war!	8e-	War
.	.	8r	.
*clefF4	*	*	*
8r	.	4r	.
8G-	Good	.	.
4E-	god	8e-	Huh!
.	.	8r	.
4GG-	ya'll!	4r	.
=43	=43	=43	=43
1r	.	2r	.
.	.	8d-	What
.	.	4e-	is
.	.	8d-	it
=44	=44	=44	=44
*clefG2	*	*	*
2r	.	4g-	good
.	.	8e-	for?
.	.	8r	.
8d-	ab-	2r	.
8e-	-so-	.	.
8e-	-lu-	.	.
8d-	-tely	.	.
=45	=45	=45	=45
4r	.	16e-	No-
.	.	16G-	-thin'
.	.	8r	.
16e-	Say	4r	.
16g-	it	.	.
8r	.	.	.
16g-	say	2r	.
16a-	it	.	.
8r	.	.	.
16a-	say	.	.
8.b-	it!	.	.
=46	=46	=46	=46
4r	.	8e-	War
.	.	8r	.
8r	.	4r	.
8e-	Uh-	.	.
4g-	-huh	8e-	Huh!
.	.	8r	.
4e-	yeah	4r	.
=47	=47	=47	=47
4E-	Huh!	2r	.
4r	.	.	.
2r	.	8d-	What
.	.	4e-	is
.	.	8d-	it
=48	=48	=48	=48
2r	.	4g-	good
.	.	8e-	for?
.	.	8r	.
8d-	ab-	2r	.
8e-	-so-	.	.
8e-	-lu-	.	.
8d-	-tely	.	.
=49	=49	=49	=49
8r	.	16e-	No-
.	.	16G-	-thin'
16G-	Lis-	8r	.
16G-	-ten	.	.
16E-	to	4r	.
16GG-	me	.	.
8r	.	.	.
2r	.	2r	.
=50	=50	=50	=50
*clefG2	*	*	*
4r	.	8e-	War
.	.	8r	.
16r	.	4r	.
16g-	It	.	.
8a-	ain't	.	.
8b-	no-	2r	.
8a-	-thin'	.	.
16g-	but	.	.
16a-	a	.	.
16b-	heart-	.	.
16a-	_	.	.
=51	=51	=51	=51
8g-	_	1r	.
8.e-	-break	.	.
8.d-	Uh	.	.
2r	.	.	.
=52	=52	=52	=52
4r	.	8e- g-	War
.	.	8r	.
16a-	It's	4r	.
8b-	got	.	.
[16dd-	one	.	.
8dd-]	_	2r	.
16a-	friend	.	.
16g-	_	.	.
12e-	_	.	.
12e-	that's	.	.
12e-	the	.	.
=53	=53	=53	=53
16g-	un-	1r	.
8e-	-der-	.	.
8.e-	-ta-	.	.
24B-	-ker	.	.
24A-	_	.	.
24G-	_	.	.
8r	.	.	.
*clefG2	*	*	*
4.ee-	Ah	.	.
=54	=54	=54	=54
4ee-	war!	1r	.
8r	.	.	.
8b-	has	.	.
8a-	sha-	.	.
8b-	-ttered	.	.
4r	.	.	.
=55	=55	=55	=55
16g-	ma-	1r	.
16e-	-ny	.	.
16e-	a	.	.
8e-	young	.	.
8.e-	man's	.	.
16e-	dreams	.	.
16d-	_	.	.
8B-	_	.	.
4r	.	.	.
=56	=56	=56	=56
16r	.	1r	.
8e-	Made	.	.
8g-	him	.	.
8a-	dis-	.	.
8dd-	-a-	.	.
16b-	-bled	.	.
16a-	_	.	.
16g-	_	.	.
8e-	_	.	.
8r	.	.	.
=57	=57	=57	=57
16g-	bit-	1r	.
8e-	-ter	.	.
8.e-	and	.	.
8e-	mean	.	.
4.r	.	.	.
8ee-	Life	.	.
=58	=58	=58	=58
10ee-	is	1r	.
10a-	much	.	.
10g-	to	.	.
10a-	short	.	.
10b-	and	.	.
16g-	pre-	.	.
8e-	-cious	.	.
16r	.	.	.
16r	.	.	.
16e-	to	.	.
8e-	spend	.	.
=59	=59	=59	=59
16b-	fight-	1r	.
8b-	-ing	.	.
8g-	wars	.	.
8e-	these	.	.
16e-	days	.	.
16d-	_	.	.
16B-	_	.	.
8r	.	.	.
4r	.	.	.
=60	=60	=60	=60
6a-	War	1r	.
6g-	can't	.	.
6a-	give	.	.
4b-	life	.	.
16r	.	.	.
16dd-	it	.	.
16dd-	can	.	.
[16ee-	on-	.	.
=61	=61	=61	=61
8ee-]	_	1r	.
16dd-	-ly	.	.
8b-	take	.	.
16a-	it	.	.
16g-	a-	.	.
16b-	-way	.	.
8r	.	.	.
*clefG2	*	*	*
4.ee-	Ah	.	.
=62	=62	=62	=62
4ee-	war!	8e-	War
.	.	8r	.
4r	.	4r	.
*clefF4	*	*	*
8r	.	8e-	Huh!
8G-	Good	8r	.
4E-	god	4r	.
=63	=63	=63	=63
4GG-	ya'll!	2r	.
4r	.	.	.
2r	.	8d-	What
.	.	4e-	is
.	.	8d-	it
=64	=64	=64	=64
2r	.	4g-	good
.	.	8e-	for?
.	.	8r	.
8d-	ab-	2r	.
8e-	-so-	.	.
8e-	-lu-	.	.
8d-	-tely	.	.
=65	=65	=65	=65
4r	.	16e-	No-
.	.	16G-	-thin'
.	.	8r	.
16g-	Say	4r	.
16g-	it	.	.
16g-	a-	.	.
[16e-	-gain	.	.
8e-]	_	2r	.
8r	.	.	.
4r	.	.	.
=66	=66	=66	=66
4.r	.	8e-	War
.	.	8r	.
.	.	4r	.
8B-	Ooh	.	.
8d-	Woh	8e-	Huh!
8e-	_	8r	.
8e-	woh	4r	.
8g-	_	.	.
=67	=67	=67	=67
8g-	woh	2r	.
8e-	_	.	.
16e-	Lord	.	.
16d-	_	.	.
8B-	_	.	.
2r	.	8d-	What
.	.	4e-	is
.	.	8d-	it
=68	=68	=68	=68
4.r	.	4g-	good
.	.	8e-	for?
8B-	Ah	8r	.
8d-	ab-	2r	.
8e-	-so-	.	.
8e-	-lu-	.	.
8d-	-tely	.	.
=69	=69	=69	=69
8r	.	16e-	No-
.	.	16G-	-thin'
16G-	Lis-	8r	.
16G-	-ten	.	.
16E-	to	4r	.
16GG-	me	.	.
8r	.	.	.
2r	.	2r	.
=70	=70	=70	=70
*clefG2	*	*	*
4r	.	8e- g-	War
.	.	8r	.
16r	.	4r	.
16g-	It	.	.
8a-	ain't	.	.
8b-	no-	2r	.
8a-	-thin'	.	.
16g-	but	.	.
16a-	a	.	.
16b-	heart-	.	.
16a-	_	.	.
=71	=71	=71	=71
8g-	_	1r	.
8.e-	-break	.	.
8.d-	Uh	.	.
2r	.	.	.
=72	=72	=72	=72
4r	.	8e- g-	War
.	.	8r	.
4b-	Friend	4r	.
8b-	on-	2r	.
8e-	-ly	.	.
8r	.	.	.
16g-	to	.	.
16a-	the	.	.
=73	=73	=73	=73
16b-	un-	1r	.
8g-	-der-	.	.
16g-	-ta-	.	.
8e-	-ker	.	.
8r	.	.	.
8r	.	.	.
*clefG2	*	*	*
4bb-	Wooh!	.	.
8r	.	.	.
=74	=74	=74	=74
4r	.	1r	.
4g-	Peace	.	.
8g-	love	.	.
8g-	and	.	.
8g-	un-	.	.
8g-	-der-	.	.
=75	=75	=75	=75
8g-	-stand-	1r	.
8e-	_	.	.
8e-	-ing	.	.
4e-	Tell	.	.
8d-	me	.	.
8r	.	.	.
[8ee-	is	.	.
=76	=76	=76	=76
8ee-]	_	1r	.
8dd-	there	.	.
8b-	no	.	.
16a-	place	.	.
16g-	_	.	.
8e-	_	.	.
16e-	for	.	.
8e-	them	.	.
16d-	to-	.	.
8d-	-day?	.	.
=77	=77	=77	=77
2r	.	1r	.
4.r	.	.	.
8g-	They	.	.
=78	=78	=78	=78
8b-	say	1r	.
8a-	we	.	.
8g-	must	.	.
16b-	fight	.	.
16a-	_	.	.
8b-	_	.	.
8r	.	.	.
8r	.	.	.
8e-	to	.	.
=79	=79	=79	=79
8g-	keep	1r	.
4g-	our	.	.
8g-	free-	.	.
8e-	-dom	.	.
8d-	but	.	.
8e-	Lord	.	.
8r	.	.	.
=80	=80	=80	=80
8b-	knows	1r	.
8a-	there's	.	.
8a-	got	.	.
8g-	to	.	.
8a-	be	.	.
8g-	a	.	.
8e-	bet-	.	.
8d-	-ter	.	.
=81	=81	=81	=81
16e-	way	1r	.
16d-	_	.	.
8r	.	.	.
2ee-	Ah	.	.
4r	.	.	.
=82	=82	=82	=82
4ee-	war!	8e-	War
.	.	8r	.
*clefF4	*	*	*
4r	.	4r	.
4E-	god	8e-	Huh!
.	.	8r	.
4GG-	ya'll!	4r	.
=83	=83	=83	=83
1r	.	2r	.
.	.	8d-	What
.	.	4e-	is
.	.	8d-	it
=84	=84	=84	=84
4.r	.	4g-	good
.	.	8e-	for?
8G-	You	8r	.
8E-	tell	2r	.
8GG-	me	.	.
4r	.	.	.
=85	=85	=85	=85
*clefG2	*	*	*
16e-	Say	16e-	No-
16e-	it	16G-	-thin'
16r	.	8r	.
16g-	say	.	.
16g-	it	4r	.
16r	.	.	.
16a-	say	.	.
16a-	it!	.	.
8r	.	2r	.
8b-	say	.	.
16a-	_	.	.
16g-	_	.	.
8e-	it	.	.
=86	=86	=86	=86
*clefF4	*	*	*
4r	.	8e-	War
.	.	8r	.
8r	.	4r	.
8G-	Good	.	.
4E-	god	8e-	Huh!
.	.	8r	.
4GG-	man!	4r	.
=87	=87	=87	=87
4r	.	2r	.
8r	.	.	.
8E-	Huh!	.	.
2r	.	8d-	What
.	.	4e-	is
.	.	8d-	it
=88	=88	=88	=88
2r	.	4g-	good
.	.	8e-	for?
.	.	8r	.
16d-	Stand	2r	.
8d-	up	.	.
16d-	and	.	.
8d-	shout	.	.
8B-	it	.	.
=89	=89	=89	=89
1r	.	16e-	No-
.	.	16G-	-thin'
.	.	8r	.
.	.	4r	.
.	.	2r	.
=90	=90	=90	=90
1r	.	1r	.
=91	=91	=91	=91
1r	.	1r	.
=92	=92	=92	=92
1r	.	1r	.
r;	.	r;	.
r;	.	r;	.
*-	*-	*-	*-
!!!ENC: Nathaniel Condit-Schultz